X:1
T:Title
%%score 1 2
L:1/8
Q:1/4=103
M:4/4
K:D
V:1 treble nm="Grand Piano, Soprano"
V:2 bass nm="Choir Pad, Anchored, George C. Hugg"
V:1
 [FA]3 [FA] [=F^G][^FA][=GB][FA] | [FA] [DF]3- [DF]3/2 z/ z2 | [CA]3 [CE] [C^D][CE][CA][CG] | %3
w: By~George~Crawford~Hugg,~1898 * * * * *|||
 [DF]6 z2 | [FA]3 [FA] [=F^G][^FA][=GB][FA] | [FA] [DF]3- [DF]3/2 z/ z2 | %6
w: |||
 [DE]3 [DF] [D^G][DA][DB][Ec] | [CA]6 z2 | [Fd]3 [Ac] [GB][Bd][Ac][GB] | %9
w: |||
 [GB] [FA]3- [FA]3/2 z/ z2 | [Fd]3 [Ac] [GB][Bd][DA][DF] | [CE]6 z2 | [DF]3 [DE] D[DF][FA][Fd] | %13
w: ||||
 [Ge] [GB]3- [GB]3/2 z/ z2 | [GA][GB][Gc][Fd] [CF]2 [CE]2 | D8 |] %16
w: |||
V:2
 [D,D]3 [D,D] [D,D][D,D][D,D][D,D] | [D,D] [D,A,]3- [D,A,]3/2 z/ z2 | %2
 [A,,A,]3 [A,,G,] [A,,G,][A,,G,][A,,E,][A,,A,] | [D,A,]6 z2 | [D,D]3 [D,D] [D,D][D,D][D,D][D,D] | %5
 [D,D] [D,A,]3- [D,A,]3/2 z/ z2 | [E,^G,]3 [E,A,] [E,B,][E,A,][E,G,][E,G,] | [A,,A,]6 z2 | %8
 [D,A,]3 [F,A,] [G,D][G,D][G,D][G,D] | [D,D] [D,D]3- [D,D]3/2 z/ z2 | %10
 [D,A,]3 [D,A,] [G,D][G,D][F,A,][D,A,] | [A,,A,]6 z2 | [D,A,]3 [D,G,] [D,F,][D,A,][D,D][D,A,] | %13
 [G,B,] [G,D]3- [G,D]3/2 z/ z2 | [A,C][A,D][A,E][A,D] [A,,A,]2 [A,,G,]2 | [D,F,]8 |] %16

